outputs/icons/social/point_star_round.svg

<svg xmlns="http://www.w3.org/2000/svg" width="1200" height="1200" fill="none"><path fill="#000" d="M599.5 100C323.5 100 100 324 100 600s223.5 500 499.5 500C876 1100 1100 876 1100 600S876 100 599.5 100m202.63 759.68c3.5 15.07-12.83 26.935-26.08 18.95L600 772.5 423.972 878.615c-13.251 7.99-29.587-3.885-26.079-18.955L444.5 659.5 289.341 525.14c-11.701-10.13-5.454-29.35 9.967-30.667L504 477l79.9-188.93c6.02-14.238 26.195-14.246 32.23-.012L696 476.5l204.69 17.474c15.425 1.316 21.67 20.531 9.97 30.666L755.5 659z"/></svg>

<svg width="1200" height="1200" viewBox="0 0 1200 1200" fill="none" xmlns="http://www.w3.org/2000/svg"><path d="M599.5 100C323.5 100 100 324 100 600C100 876 323.5 1100 599.5 1100C876 1100 1100 876 1100 600C1100 324 876 100 599.5 100ZM802.13 859.68C805.63 874.75 789.3 886.615 776.05 878.63L600 772.5L423.972 878.615C410.721 886.605 394.385 874.73 397.893 859.66L444.5 659.5L289.341 525.14C277.64 515.01 283.887 495.79 299.308 494.473L504 477L583.9 288.07C589.92 273.832 610.095 273.824 616.13 288.058L696 476.5L900.69 493.974C916.115 495.29 922.36 514.505 910.66 524.64L755.5 659L802.13 859.68Z" fill="#1D1E23"/></svg>
